X:1
T:Title
%%score 1 { 2 | 3 }
L:1/8
Q:1/4=110
M:4/4
K:Ab
V:1 treble nm="Grand Piano, Soprano"
V:2 treble nm="Choir Pad, To Thee, Dear Lord,  I Go"
V:3 bass 
V:1
 [Ae]2 [Ae]2 [Ac]2 [Ac]2- | [Ac][EB] [FA]2 [DF]2 [CE]2 | [CE]2 [EA]2 [EA]2 [Ac]2 | A2 [GB]6 | %4
w: By~Rufus~Henry~Cornelius * * *||||
 [Ge]2 [Ae]2 [Ac]2 [Ac]2- | [Ac][EB] [FA]2 [DF]2 [FA]2 | [DF]2 [CE]2 [Ec]2 [Ec]2 | [DB]2 [CA]6 | %8
w: ||||
 [Ae]2 [Ae]6 | [ce]2 [Ac]6 | [EA]2 [FA]6 | [DF]2 [CE]6 | [CE]2 [EA][EA] [EA]A [Ac]2 | A2 [GB]6 | %14
w: ||||||
 [Ge]2 [Ae]6 | [Ac]2 [Ac]6 | [EA]2 [FA]6 | [DF]2 [CE]6 | [CE]2 [EA]2 [EA]2 [Ac]2 | [EB]2 [EA]6- | %20
w: ||||||
 [EA]2 z2 z4 |] %21
w: |
V:2
 C2 C2 E2 E2- | EC D2[K:bass] A,2 A,2 | A,2 C2 C2[K:treble] E2 | C2 E6 | D2 C2 E2 E2- | %5
 EC D2[K:bass] A,2 A,2 | A,2 A,2 A,2 A,2 | G,2 A,6 | C2 C2 C2 C2 | E2 E2 E2 E2 | C2 D2 D2 D2 | %11
 A,2 A,2 A,2 A,2 | A,2[K:treble] CC A,C E2 | E2 E6 | D2 C2 C2 C2 | E2 E2 E2 E2 | C2 D2 D2 D2 | %17
 A,2 A,2 A,2 A,2 | A,2[K:treble] C2 C2 E2 | D2 C6- | C2 z2 z4 |] %21
V:3
 A,2 A,2 A,2 A,2- | A,A, D,2 D,2 A,,2 | A,,2 A,,2 A,,2 A,2 | A,2 E,6 | E,2 A,2 A,2 A,2- | %5
 A,A, D,2 D,2 D,2 | D,2 E,2 E,2 E,2 | E,2 A,,6 | A,2 A,2 A,2 A,2 | A,2 A,2 A,2 A,2 | %10
 A,2 D,2 D,2 D,2 | D,2 A,,2 A,,2 A,,2 | A,,2 A,,A,, C,E, A,2 | C,2 E,6 | E,2 A,2 A,2 A,2 | %15
 A,2 A,2 A,2 A,2 | A,2 D,2 D,2 D,2 | D,2 A,,2 A,,2 A,,2 | A,,2 A,2 A,2 E,2 | E,2 A,,6- | %20
 A,,2 z2 z4 |] %21

